X:159
T: Corus Jigg
T: Chorus Jig
N: O'Farrell's Pocket Companion v.2 (Sky ed. p.81-2)
N: "Irish"
M: 6/8
L: 1/8
R: jig
Q: 320
K: D
A|: FEF DED|AFD FED|FEF DED|A3 BAG|
FEF DED|AFD FED|FEF cBc|G3 GFE :|
P:2
F2d dFd|F2A AFA|F2d dFd|A3 BAG|
F2d dFd|F2A AGF|EFE cBc|G3 GFE :|
P:3
f2d dAd|f/g/af d2d|f2d ded|a3 bag|
fed dAd|f/g/af dfd|gfg ece|g3 gfe :|
P:4
fdB fdA|fdB AGF|DFA dcd|A3 A2g|
faf gec|fdB AGF|EFE cBc|G3 GFE :|
P:5
FED FAD|GBD FAD|FED FAD|A3 BAG|
FED FAD|GBG AGF|EFE cBc|G3 GFE :|
